X:280
T: IM SCHWARZEN WALLFISCH
N: F0492
O: Europa, Mitteleuropa, Deutschland
R: Studenten -, Trink - Lied
M: 6/8
L: 1/16
K: G
D2 | G3FA2B3AG2 | A3GA2c3B
A2 | E3^DE2G3FE2 | B8z2
d2 | d4c2E4cc | c4B2D4
B2 | B4A2B4c2 | d6-d4
d2 | d4c2E4cc | c4B2D4
B2 | B4A2c4B2 | G8z2

